!!!OTL: 213. Bolgarish
!!!Genre:	Bolgarish
!!!Mode:	Freygish
!!!Listening/dance:	dance
!!!:	*C:
!!!One_Mode:	no
**kern
*thru
*I"P1
*clefG2
*k[b-e-a-]
*C:
!LO:TX:a:i:t=C-major
8ee
8r
[4ee
=34
8eeL]
16ffL
16eeJJ
8ddL
8ccJ
=35
8gg
8r
[4gg
=36
8ggL]
16aaL
16ggJJ
8ffL
8eeJ
=37
4.bb-X
8aa
=38
8bb-XL
8aa
8gg
8ff#XJ
=39
2gg
=40
8eeL
16ffL
16eeJJ
8ddL
8ccJ
=41
8ee
8r
[4ee
=42
8eeL]
16ffL
16eeJJ
8ddL
8ccJ
=43
8gg
8r
[4gg
=44
8ggL]
16aaL
16ggJJ
8ffL
8eeJ
=45
8ddL
8aa
8gg
8ffJ
=46
8eeL
8cc
8dd
8bJ
=47
[2cc
=48
4cc]
8r
*>E
!!!End-Modulation
*-
